Simply white circles/scalable/actions/transform-rotate.svg

<svg xmlns="http://www.w3.org/2000/svg" width="24" height="24" version="1">
  <defs>
    <linearGradient id="a">
      <stop offset="0" stop-color="#c1b0e6"/>
      <stop offset="1" stop-color="#9c83d5"/>
    </linearGradient>
    <linearGradient id="c">
      <stop offset="0" stop-color="#7653c6"/>
      <stop offset="1" stop-color="#683fc5" stop-opacity="0"/>
    </linearGradient>
    <linearGradient id="b">
      <stop offset="0" stop-color="#9c83d5"/>
      <stop offset="1" stop-color="#9c83d5" stop-opacity="0"/>
    </linearGradient>
    <linearGradient id="d">
      <stop offset="0" stop-color="#fff"/>
      <stop offset="1" stop-color="#fff" stop-opacity="0"/>
    </linearGradient>
    <linearGradient id="e">
      <stop offset="0" stop-color="#fff" stop-opacity="0"/>
      <stop offset=".63129705" stop-color="#fff" stop-opacity=".27472529"/>
      <stop offset="1" stop-color="#fff" stop-opacity="0"/>
    </linearGradient>
  </defs>
  <path fill="#e6e6e6" d="M11.806641 3c-4.9725001 0-8.9902348 4.0275-8.9902348 9s4.0177347 9 8.9902348 9c4.190625 0 7.699687-2.86875 8.695312-6.75h-2.339844c-.928125 2.62125-3.413593 4.5-6.355468 4.5-3.7293751 0-6.7500004-3.020625-6.7500004-6.75s3.0206253-6.75 6.7500004-6.75c1.861875 0 3.531328.7754688 4.751953 1.9960938L12.931641 10.875h7.875V3l-2.644532 2.6445312C16.536484 4.0132812 14.292891 3 11.806641 3zM12 11.005859A.99360561.99360561 0 0 0 11.005859 12 .99360561.99360561 0 0 0 12 12.994141.99360561.99360561 0 0 0 12.994141 12 .99360561.99360561 0 0 0 12 11.005859z"/>
</svg>

<?xml version="1.0" encoding="UTF-8" standalone="no"?>
<!-- Created with Inkscape (http://www.inkscape.org/) -->

<svg
   xmlns:dc="http://purl.org/dc/elements/1.1/"
   xmlns:cc="http://creativecommons.org/ns#"
   xmlns:rdf="http://www.w3.org/1999/02/22-rdf-syntax-ns#"
   xmlns:svg="http://www.w3.org/2000/svg"
   xmlns="http://www.w3.org/2000/svg"
   xmlns:xlink="http://www.w3.org/1999/xlink"
   xmlns:sodipodi="http://sodipodi.sourceforge.net/DTD/sodipodi-0.dtd"
   xmlns:inkscape="http://www.inkscape.org/namespaces/inkscape"
   width="24"
   height="24"
   id="svg3349"
   sodipodi:version="0.32"
   inkscape:version="0.92.3 (2405546, 2018-03-11)"
   version="1.0"
   sodipodi:docname="transform-rotate.svg"
   inkscape:output_extension="org.inkscape.output.svg.inkscape">
  <defs
     id="defs3351">
    <linearGradient
       id="linearGradient3533">
      <stop
         id="stop3535"
         style="stop-color:#c1b0e6;stop-opacity:1;"
         offset="0" />
      <stop
         id="stop3545"
         style="stop-color:#9c83d5;stop-opacity:1;"
         offset="1" />
    </linearGradient>
    <linearGradient
       id="linearGradient3266">
      <stop
         style="stop-color:#7653c6;stop-opacity:1;"
         offset="0"
         id="stop3268" />
      <stop
         style="stop-color:#683fc5;stop-opacity:0;"
         offset="1"
         id="stop3270" />
    </linearGradient>
    <linearGradient
       id="linearGradient3276">
      <stop
         style="stop-color:#9c83d5;stop-opacity:1;"
         offset="0"
         id="stop3278" />
      <stop
         style="stop-color:#9c83d5;stop-opacity:0;"
         offset="1"
         id="stop3280" />
    </linearGradient>
    <linearGradient
       id="linearGradient4873"
       inkscape:collect="always">
      <stop
         id="stop4875"
         offset="0"
         style="stop-color:#ffffff;stop-opacity:1;" />
      <stop
         id="stop4877"
         offset="1"
         style="stop-color:#ffffff;stop-opacity:0;" />
    </linearGradient>
    <linearGradient
       id="linearGradient3319">
      <stop
         style="stop-color:#ffffff;stop-opacity:0;"
         offset="0"
         id="stop3321" />
      <stop
         id="stop3323"
         offset="0.63129705"
         style="stop-color:#ffffff;stop-opacity:0.27472529" />
      <stop
         style="stop-color:#ffffff;stop-opacity:0;"
         offset="1"
         id="stop3325" />
    </linearGradient>
    <linearGradient
       inkscape:collect="always"
       xlink:href="#linearGradient3533"
       id="linearGradient3402"
       gradientUnits="userSpaceOnUse"
       gradientTransform="matrix(0.3446423,-0.3446422,0.3381098,0.3381098,0.1178032,10.322607)"
       x1="20.137201"
       y1="4.4757133"
       x2="16.597107"
       y2="17.94278" />
    <linearGradient
       inkscape:collect="always"
       xlink:href="#linearGradient3276"
       id="linearGradient3404"
       gradientUnits="userSpaceOnUse"
       gradientTransform="matrix(0.5097808,0.03067969,-0.03009813,0.5001183,5.2256066,-3.4926097)"
       x1="31.226292"
       y1="34.600941"
       x2="34.96563"
       y2="26.842505" />
    <linearGradient
       inkscape:collect="always"
       xlink:href="#linearGradient3266"
       id="linearGradient3406"
       gradientUnits="userSpaceOnUse"
       gradientTransform="matrix(0.5097808,0.03067969,-0.03009813,0.5001183,5.2256066,-3.4926097)"
       x1="33.686768"
       y1="35.773647"
       x2="37.039948"
       y2="29.856804" />
    <linearGradient
       inkscape:collect="always"
       xlink:href="#linearGradient4873"
       id="linearGradient3408"
       gradientUnits="userSpaceOnUse"
       gradientTransform="matrix(0.3446423,-0.3446422,0.3381098,0.3381098,0.1178032,10.322607)"
       x1="32.325527"
       y1="5.0201149"
       x2="22.245434"
       y2="43.366352" />
    <linearGradient
       inkscape:collect="always"
       xlink:href="#linearGradient3319"
       id="linearGradient3410"
       gradientUnits="userSpaceOnUse"
       gradientTransform="matrix(0.4865175,0.02927958,-0.02872474,0.4772959,5.2842788,-2.0361756)"
       x1="28.116938"
       y1="41.67448"
       x2="39.686337"
       y2="28.50532" />
    <linearGradient
       inkscape:collect="always"
       xlink:href="#linearGradient4873"
       id="linearGradient2420"
       gradientUnits="userSpaceOnUse"
       gradientTransform="matrix(0.6892164,-0.6892162,0.6761527,0.6761527,-7.5101133,28.644755)"
       x1="32.325527"
       y1="5.0201149"
       x2="22.245434"
       y2="43.366352" />
    <linearGradient
       inkscape:collect="always"
       xlink:href="#linearGradient4873"
       id="linearGradient2433"
       gradientUnits="userSpaceOnUse"
       gradientTransform="matrix(0.6892164,-0.6892162,0.6761527,0.6761527,-7.5101133,28.644755)"
       x1="32.325527"
       y1="5.0201149"
       x2="22.245434"
       y2="43.366352" />
  </defs>
  <sodipodi:namedview
     id="base"
     pagecolor="#ffffff"
     bordercolor="#666666"
     borderopacity="1.0"
     inkscape:pageopacity="0.0"
     inkscape:pageshadow="2"
     inkscape:zoom="17.412504"
     inkscape:cx="10.994975"
     inkscape:cy="12"
     inkscape:current-layer="layer1"
     showgrid="false"
     inkscape:grid-bbox="true"
     inkscape:document-units="px"
     inkscape:window-width="1366"
     inkscape:window-height="719"
     inkscape:window-x="0"
     inkscape:window-y="25"
     inkscape:window-maximized="1"
     showguides="true"
     inkscape:guide-bbox="true">
    <inkscape:grid
       type="xygrid"
       id="grid3412"
       visible="true"
       enabled="true" />
  </sodipodi:namedview>
  <metadata
     id="metadata3354">
    <rdf:RDF>
      <cc:Work
         rdf:about="">
        <dc:format>image/svg+xml</dc:format>
        <dc:type
           rdf:resource="http://purl.org/dc/dcmitype/StillImage" />
        <dc:title></dc:title>
      </cc:Work>
    </rdf:RDF>
  </metadata>
  <g
     id="layer1"
     inkscape:label="Layer 1"
     inkscape:groupmode="layer"
     transform="translate(0,-24)">
    <path
       style="fill:#e6e6e6;stroke-width:0.5625"
       d="M 11.806641 3 C 6.8341409 3 2.8164062 7.0275 2.8164062 12 C 2.8164062 16.9725 6.8341409 21 11.806641 21 C 15.997266 21 19.506328 18.13125 20.501953 14.25 L 18.162109 14.25 C 17.233984 16.87125 14.748516 18.75 11.806641 18.75 C 8.0772659 18.75 5.0566406 15.729375 5.0566406 12 C 5.0566406 8.270625 8.0772659 5.25 11.806641 5.25 C 13.668516 5.25 15.337969 6.0254688 16.558594 7.2460938 L 12.931641 10.875 L 20.806641 10.875 L 20.806641 3 L 18.162109 5.6445312 C 16.536484 4.0132812 14.292891 3 11.806641 3 z M 12 11.005859 A 0.99360561 0.99360561 0 0 0 11.005859 12 A 0.99360561 0.99360561 0 0 0 12 12.994141 A 0.99360561 0.99360561 0 0 0 12.994141 12 A 0.99360561 0.99360561 0 0 0 12 11.005859 z "
       transform="translate(0,24)"
       id="path2-3" />
  </g>
</svg>
